resources/icons/20px/cloud-tick.svg

<svg width="20" height="20" viewBox="0 0 20 20" fill="none" xmlns="http://www.w3.org/2000/svg">
<path d="M14.784 4.0216C14.736 4.0288 14.688 4.036 14.64 4.04C13.83 1.69 11.62 0 9 0C5.69 0 3 2.69 3 6C3 6.025 3.0025 6.0475 3.005 6.07C3.0075 6.0925 3.01 6.115 3.01 6.14C1.28 6.58 0 8.13 0 10C0 12.21 1.79 14 4 14H5.17083C5.31524 13.5905 5.55119 13.2062 5.87868 12.8787C7.05025 11.7071 8.94975 11.7071 10.1213 12.8787L11 13.7574L15.8787 8.87868C17.0088 7.74857 18.8162 7.70858 19.9943 8.75871C19.8682 6.11062 17.6791 4 15 4C14.928 4 14.856 4.0108 14.784 4.0216Z" fill="black"/>
<path d="M11.7071 18.7071C11.3166 19.0976 10.6834 19.0976 10.2929 18.7071L7.29289 15.7071C6.90237 15.3166 6.90237 14.6834 7.29289 14.2929C7.68342 13.9024 8.31658 13.9024 8.70711 14.2929L11 16.5858L17.2927 10.293C17.6206 9.9652 18.1196 9.91244 18.5023 10.135C18.5755 10.1776 18.6444 10.2302 18.7071 10.2929C19.0488 10.6346 19.0915 11.1621 18.8352 11.5502C18.7986 11.6057 18.7559 11.6583 18.7071 11.7071L11.7071 18.7071Z" fill="black"/>
</svg>

<svg xmlns="http://www.w3.org/2000/svg" viewBox="0 0 20 20">
  <path d="M14.784 4.022a2 2 0 0 1-.144.018C13.83 1.69 11.62 0 9 0 5.69 0 3 2.69 3 6q0 .037.005.07a1 1 0 0 1 .005.07A3.98 3.98 0 0 0 0 10c0 2.21 1.79 4 4 4h1.17a3 3 0 0 1 4.95-1.121l.88.878 4.879-4.878a3 3 0 0 1 4.115-.12A5 5 0 0 0 15 4q-.108.002-.216.022"/>
  <path d="M11.707 18.707a1 1 0 0 1-1.414 0l-3-3a1 1 0 1 1 1.414-1.414L11 16.586l6.293-6.293a1 1 0 0 1 1.414 1.414z"/>
</svg>
